X: 40562
T: Tommy Peoples'
R: reel
M: 4/4
K: Gmajor
|:G2BG cGBG|ADD/D/D FGAF|G2BG cGBG|1 Addc AGFD:|2 Addc AGBd||
~g2dg egdg|~g2bg fgaf|~g2dg egdB|cBAc BGBd|
~g2dg egdg|~g2bg fgaf|~g2gd egdB|cBAc BGFD||

